X: 151
T: Round O
M:4/4
L:1/8
Q:160
S:Playford
O:Manuscript
A:English
K:C
ef|cBAc B2 ^G2|A4 B4|c2 dcBcAc|B4 G2 ed|cBAc B2 ^g2|A2 B2|c dc B3 a|A6:|
|: ag|a2 e2 f2 g2|f4 e2 fe|d2 c2 B2 c2|c3 B A2 ef|g2 A2 f2 af|f2 A2 f2 af|e2 dc d2 B2|c6:|
|: ed|cBAc B2 ^g2|A4 B4|c2 dc BcAc|B4 G2 ed|cBAc B2 ^G2|A4 B4|c2 dc B3 A|A6 :|
|: g2|a2 ^g2 a2 ef|f3 e d2 ef|g2 e2 defg|e2 c4 fg|d2 ed c2 de|fedc B2 c2|A2 Bc B3 A| ^g6 e2:|

